X:1313
L:1/8
M:6/8
K:Emin
 B, | EFE G2 B | EFE E2 G | F2 D D2 F | ABG FED | EFE G2 B | EFE E2 g | fed Bc^d | e3 E2 :: f | 
 g2 e eBe | g2 e e2 g | f2 d d2 f | aba fdf |1 g2 e eBe | g2 e e2 g | fed Bc^d | e3 E2 :|2 
 gbg faf | gbg efg | fed Bc^d | e3 E2 ||

